X:1
T:Waiting
T:Waiting
T:Curtis V. Strickland
T:John Narver Gortner, 1896
T:Public Domain Courtesy of the Cyber Hymnal™
T:Public Domain Courtesy of the Cyber Hymnal™
C:Curtis V. Strickland
Z:Public Domain
Z:Courtesy of the Cyber Hymnal™
%%score ( 1 2 ) 3
L:1/8
Q:1/4=110
M:9/8
K:Bb
V:1 treble 
V:2 treble 
V:3 bass 
V:1
 [DF]2 [DB] | [Fd]3- [Fd]2 [FB] (cB)[EG] | [DF]3 [B,D]3 [DF]2 [EA] | [Fc]3- [Fc]2 [DB] [EA]2 [DB] | %4
w: 1.~I am|wait- * ing ’mid * the|sha- dows Of this|dark * and dis- mal|
w: 2.~All my|earth- * ly tasks * are|fin- ished, I’m just|wait- * ing for my|
w: 3.~Soon the|sun- * light of * the|hea- ven, That is|built * for man on|
w: 4.~On- ly|wait- * ing for * the|morn- ing, Wait- ing|by * the cur- rent|
w: 5.~Fare- well|earth, * with all * thy|sha- dows, Fare- well|dark- * ness, death and|
 [Fc]6 [DF]2 [DB] | [Fd]3- [Fd]2 [FB] [Ec]2 [EB] | [EA]3 [EG]3 [DF]2 [EA] | %7
w: shore; I am|wait- * ing for the|cur- rent, For the|
w: Lord; Soon my|jour- * ney will be|end- ed, And I’ll|
w: high, Will in|beams * of bright- est|glo- ry, Fall in|
w: dark; Wait- ing|for * the com- ing|sig- nal, For my|
w: pain, I am|go- * ing home to|glo- ry, With the|
 [Fc]3- [Fc]2 [FB] [EA]2 [Ec] | [DB]6 [Ec]2 [E=B] | [Ec]3- [Ec]2 [Fd] [Fe]2 [Fd] | %10
w: Lord * to bear me|o’er. For a|cen- * tury I have|
w: go * to my re-|ward. Soon the|boat- * man o’er the|
w: tri- * umph from the|sky. While I|mount * from death and|
w: man- * sion to em-|bark. And I|know * the boat- man’s|
w: saints * on high to|reign; There these|eyes * shall see the|
 [Fe]3 [Fc]3 [DB]2 [DA] | [DB]3- [DB]2 [Ec] [Fd]2 [FB] | [Fc]6 [DF]2 [DB] | %13
w: wan- dered, ’Mid the|mur- * ky shades of|earth; Now I|
w: cur- rent, Will come|glid- * ing with his|bark, And he’ll|
w: dark- ness, To be-|hold * the glow- ing|face Of the|
w: near me, For it|seems * I hear the|oar Of the|
w: splen- dors Of the|ci- * ty built on|high, There these|
 [Fd]3- [Fd]2 [FB] [Ec]2 [EB] | [EA]3 [EG]3 [DF]2 [EA] | [Fc]3- [Fc]2 [FB] [EA]2 [Ec] | [DB]6 || %17
w: long * for Hea- ven’s|glo- ry, World of|hap- * pi- ness and|mirth.|
w: bear * me o’er the|bil- lows That are|roll- * ing deep and|dark.|
w: Christ * I love so|dear- ly, And to|rest * in His em-|brace.|
w: boat * that soon will|bear me To the|bright * ec- sta- tic|shore.|
w: feet * shall tread the|pave- ments Where none|ev- * er droop or|die.|
[M:12/8]"^Refrain" F2 F (e3 e3) [Ee]2 [Ec] B2 c | d3 d3 B3 F2 F | (G3 G3) [EG]2 [EB] G x2 | %20
w: |||
w: |||
w: On- ly wait- * ing, on- ly wait-|* * ing, On- ly|wait- * ing for the|
w: |||
w: |||
 (F3 F3) [DF]3 [DF]2 [DB] | [Fd]6- [Fd]2 [FB] [Ec]2 [EB] | [EA]3 [EG]6 [DF]2 [EA] | %23
w: |||
w: |||
w: dawn; * Wait- ing to|* * be with the|dear ones Who have|
w: |||
w: |||
 [Fc]6- [Fc]2 [FB] [EA]2 [Ec] | [DB]6 |] %25
w: ||
w: ||
w: o’er * the cur- rent|gone.|
w: ||
w: ||
V:2
 x3 | x6 E2 x | x9 | x9 | x9 | x9 | x9 | x9 | x9 | x9 | x9 | x9 | x9 | x9 | x9 | x9 | x6 || %17
[M:12/8] x6 E2 E x6 | x3 (F2 F D2) D x3 | x3 (E2 E cB) x4 | x3 D2 D x6 | x12 | x12 | x12 | x6 |] %25
V:3
 [B,,B,]2 [B,,F,] | [B,,B,]3- [B,,B,]2 [D,B,] [E,B,]2 [E,B,] | [B,,B,]3 [B,,F,]3 [B,,B,]2 [F,A,] | %3
w: ~ ~|~ * ~ ~ ~|~ ~ ~ ~|
 [F,A,]3- [F,A,]2 [F,B,] [F,C]2 [F,B,] | [F,A,]6 [B,,B,]2 [B,,F,] | %5
w: ~ * ~ ~ ~|~ ~ ~|
 [B,,B,]3- [B,,B,]2 [D,B,] [E,B,]2 [E,B,] | [E,B,]3 [E,B,]3 [B,,B,]2 [F,A,] | %7
w: ~ * ~ ~ ~|~ ~ ~ ~|
 [F,A,]3- [F,A,]2 [D,B,] [F,C]2 [F,A,] | [B,,B,]6 [F,A,]2 [F,A,] | %9
w: ~ * ~ ~ ~|~ ~ ~|
 [F,A,]3- [F,A,]2 [F,A,] [F,A,]2 [F,A,] | [F,A,]3 [F,A,]3 [B,,F,]2 [B,,F,] | %11
w: ~ * ~ ~ ~|~ ~ ~ ~|
 [B,,F,]3- [B,,F,]2 [B,,B,] [B,,B,]2 [B,,B,] | [F,A,]6 [B,,B,]2 [B,,F,] | %13
w: ~ * ~ ~ ~|~ ~ ~|
 [B,,B,]3- [B,,B,]2 [D,B,] [E,B,]2 [E,B,] | [E,B,]3 [E,B,]3 [B,,B,]2 [F,C] | %15
w: ~ * ~ ~ ~|~ ~ ~ ~|
 [F,A,]3- [F,A,]2 [D,B,] [F,C]2 [F,A,] | [B,,B,]6 ||[M:12/8] z6 [F,A,]2 [F,A,] [F,A,]2 [F,A,] z3 | %18
w: ~ * ~ ~ ~|~|On- ly wai- ting,|
 z3 [B,,B,]2 [B,,B,] [B,,B,]2 [B,,B,] z3 | z3 [E,B,]2 [E,B,] [E,B,]2 [E,B,] z3 | %20
w: on- ly wait- ing,|On- ly wait- ing,|
 z3 [B,,B,]2 [B,,B,] [B,,B,]3 [B,,B,]2 [B,,B,] | [B,,B,]6- [B,,B,]2 [D,B,] [E,G,]2 [E,G,] | %22
w: for the dawn, Wait- ing|to * * * *|
 [E,G,]3 [E,G,]6 [F,B,]2 [F,C] | [F,A,]6- [F,A,]2 [D,B,] [F,C]2 [F,A,] | [B,,B,]6 |] %25
w: |||

